X:1
T:Title
%%score { 1 | 2 }
L:1/8
M:6/8
K:C
V:1 treble nm="Grand Piano"
V:2 bass 
V:1
 z3 z2[Q:1/4=100] [CE]/[DF]/ | [EG]>[EG][EG] GAB | [Ec]3 [EG]2 [EG] | A>AA GGG | %4
 [EG]3- [EG] z [CE]/[DF]/ | [EG]>[EG][EG] GAB | [Ec]3 [EG]2 [EG] | A>AA [^FA][FB][Fc] | %8
[M:5/8] d- d3 z |[M:1/8] G |[M:3/4] [Ge]>[Ge] [Ge][Ad] [Ac][FA] | [Ec]3 .[EG]3 | %12
 [Ec]>[Ec] [Ec]B cB | [CA]4 z [FB] | [Ec]>[Ec] [Ec][_Be] [Bd][Be] | [Af]3 [Ac]2 A | G>G GG ed | %17
[M:5/8] [Ec]-[Ec]- [Ec]3 |] %18
V:2
 z3 z2 [C,G,] | [C,C]>[C,C][C,C][K:treble] [G,B,F][G,CF][G,DF] | [C,C]3 [C,C]2 [C,C] | %3
 [F,CF]>[F,CF][K:treble][F,CF] [G,B,D][G,CE][G,DF] | [C,C]3- [C,C] z [C,G,] | %5
 [C,C]>[C,C][C,C][K:treble] [G,B,F][G,CF][G,DF] | [C,C]3 [C,C]2 [C,C] | %7
 [F,CF]>[F,CF][F,CF] [D,C][D,B,][D,A,] |[M:5/8][K:treble] [G,B,G]- [G,B,G]3 z |[M:1/8] [G,F] | %10
[M:3/4][K:bass] [C,C]>[C,C] [C,C][F,C] [F,C][F,C] | [C,C]3 [C,C]2 [E,E] | %12
 [A,,A,]>[A,,A,] [A,,A,][E,^G,D] [E,G,E][E,G,D] | [A,,A,]4 z [G,D] | %14
 [C,C]>[C,C] [C,C][C,C] [C,C][C,C] | [F,C]3 [F,C]2[K:treble] [F,CF] | %16
 [G,CE]>[G,CE] [G,CE][G,B,F] [G,B,G][G,B,F] |[M:5/8][K:bass] [C,C]-[C,C]- [C,C]3 |] %18

